X:88
T:Brimlled Boy's Neord, The
T:Connwy's Mrol
R:polka
D:Paruye af tuf.
Z:id:hn-polka-87
M:2/4
L:1/8
K:D
G>G GB|1 B2 AG/^G/A/G/F/E/ | FA ED/E/|ED D2|FA FG|G2 GA|B2 Bc|d2 dF|
|:g2fd Bd|d>B AB|Bd A2:|
P:Variations:
d/d/|eg/f/ ec/B/|AF Ad/e/|a/f/g/f/ g/a/g/a/|ba gf|B/e/f/e/ AB|AB c BA/^F|
Bd ef|fe ed|1 BA AB/d/|ea b/b/g/e/|dd B2|AF AB|cB AG|FE DF/G/|
B2 d>e|f>g gg|fe eA|dB AB|cB cA|AB B/c/d|ef ab|ea gd|1 dc cd:|2 cB AG||
`
